!!!!SEGMENT: pl-sa--377-a-viii-17--002_anonim--tu-thronus-regius-maria.krn
!!!cenid: 17xx:1724
!!!COM: Anonim
!!!COM-rismid: pe30004985
!!!CDT:
!!!CNT:
!!!OTL: Tu thronus regius Maria
!!!PDT:
!!!AGN: Sacred
!!!SMS-siglum: PL-SA
!!!SMS-shelfmark: 377/A VIII 17
!!!SMS-shelfwork: 002 W
!!!SMS-variant:
!!!SMS-altvar:
!!!NIFC-rismid: 1001077373
!!!URL-scan: http://bc.bdsandomierz.pl/dlibra/publication/1681/edition/1649/content
!!!ONB-nifc: UWAGA: str. 4
**kern	**text	**text	**text	**text	**text	**text	**dynam
*I"Canto.	*	*	*	*	*	*	*
*I'S	*	*	*	*	*	*	*
*Isoprn	*	*	*	*	*	*	*
*ICvox	*	*	*	*	*	*	*
*IGsolo	*	*	*	*	*	*	*
*>[A,A,A,A,A,A]	*	*	*	*	*	*	*
*clefC1	*	*	*	*	*	*	*
*k[]	*	*	*	*	*	*	*
*a:	*	*	*	*	*	*	*
*M3/2	*	*	*	*	*	*	*
=1	=1	=1	=1	=1	=1	=1	=1
*>A	*	*	*	*	*	*	*
*2\right	*	*	*	*	*	*	*
2dd\	Tu	Tu	Tu	Tu	Tu	Cor	.
2g/	Tro-	Hie-	mun-	mun-	mun-	me-	.
2a\	-nus	-ro-	-di	-di	-di	-um	.
=2	=2	=2	=2	=2	=2	=2	=2
2.b\	Re-	-te-	O-	Cae-	Cor-	Va-	.
4a\	-gi-	-ca	-cu-	-lu-	-es	-le	.
2cc\	-us	es	-lius	-mes	O	O	.
=3	=3	=3	=3	=3	=3	=3	=3
2b\	Ma-	Ma-	Ma-	Ma-	Ma-	Ma-	.
1aT	-ri-	-ri-	-ri-	-ri-	-ri-	-ri-	.
=4	=4	=4	=4	=4	=4	=4	=4
1.g	-a	-a	-a	-a	-a	-a	.
=5	=5	=5	=5	=5	=5	=5	=5
2f#X/	Di-	Au-	Lu-	Quo	a-	Te	.
2g/	-vi-	-ro	-na	bo-	-mo-	Vi-	.
2a\	-na	et	et	-num	-ris	-ta	.
=6	=6	=6	=6	=6	=6	=6	=6
(4b\	ar-	gem-	So-	O-	Do-	Je-	.
4a\	.	.	.	.	.	.	.
4b\	.	.	.	.	.	.	.
4cc\)	.	.	.	.	.	.	.
2dd\	-ti	-mis	-le	-mne	-mi-	-sus	.
=7	=7	=7	=7	=7	=7	=7	=7
4gg\	Spe-	ful-	cla-	clau-	-ci-	A-	.
4ff\	.	.	.	.	.	.	.
!	!	!	!	!	!	!	!LO:DY:a:t=p&colon;
1ee	-ci-	-gi-	-ri-	-di-	-li-	-ni-	p
=8	=8	=8	=8	=8	=8	=8	=8
1.dd	-men	-da	-or	-or	-um	-mat	.
!!LO:LB:g=original
=9	=9	=9	=9	=9	=9	=9	=9
2dd\	Tu	Sed	Sed	Sed	Sed	Tu	.
2dd\	Tro-	Te-	Cae-	Cla-	Cor-	Je-	.
2dd\	-ni	-cum	-li	-vis	-dis	-su	.
=10	=10	=10	=10	=10	=10	=10	=10
2.ee\	Sa-	Hoſ-	pu-	Ja-	Cen-	A-	.
4dd\	-la-	-ti-	-pu-	-nu-	-tum	-ni-	.
2ee\	-mon	-a	-la	-a	eſt	-ma	.
=11	=11	=11	=11	=11	=11	=11	=11
*	*ij	*ij	*ij	*ij	*ij	*ij	*
2a\	Tu	Sed	Sed	Sed	Sed	Tu	.
2b\	Tro-	Te-	Cae-	Cla-	Cor-	Je-	.
2cc\	-ni	-cum	-li	-vis	-dis	-su	.
=12	=12	=12	=12	=12	=12	=12	=12
2.dd\	Sa-	Hoſ-	pu-	Ja-	Cen-	A-	.
4cc\	-la-	-ti-	-pu-	-nu-	-tum	-ni-	.
2b\	-mon	-a	-la	-a	eſt	-ma	.
*	*Xij	*Xij	*Xij	*Xij	*Xij	*Xij	*
=13	=13	=13	=13	=13	=13	=13	=13
2.a\	Fi-	Fi-	Fi-	Fi-	Fi-	Fi-	.
4a\	-li-	-li-	-li	-li-	-li-	-li-	.
2dd\	-us	-us	us	-us	-us	-us	.
=14	=14	=14	=14	=14	=14	=14	=14
(4cc\	Ma-	Ma-	Ma-	Ma-	Ma-	Ma-	.
4b\)	.	.	.	.	.	.	.
1aT	-ri-	-ri-	-ri-	-ri-	-ri-	-ri-	.
=15	=15	=15	=15	=15	=15	=15	=15
1.g	-ae	-ae	-ae.	-ae	-ae	-ae.	.
==	==	==	==	==	==	==	==
*-	*-	*-	*-	*-	*-	*-	*-
!!!ENC: Andrzej Gręziak
!!!END: 2021-01-11
!!!EED: Andrzej Borzym
!!!EST: 2021-12-30
